X:4260
T:Pilek
A:Skne
M:4/4
N:A well-known one
O:Sweden
O:Denmark
R:Engelska
Z:Richard Robinson 
%%TUNEURL: http://www.leeds.ac.uk/music/Info/RRTuneBk/gettune/00000a49.html
%%ID:00000a49
K:G
DG BA G2G2|DG BA G2G2|EA cB A2AG|F2EF G2::Bc|\
d2B2 B2Bc|d2B2 B2AB|
c2cB A2AG|F2EF G2 :: \
G2B2 d2f2|g2e2 e2d2|c2c2 B2G2|A2F2 G4:|
